X:108
T:Castle Church Jig
C:Chris Dewhurst
L:1/8
M:6/8
S:Colin Hume's website,  colinhume.com  - chords can also be printed below the stave.
Q:3/8=114
H:For the dance "The New Man" for the wedding of Sian Morgan and Peter Gilliam.
H:The music appears in the Cloverleaf Collection, Book 2, along with
H:many other excellent country dance tunes composed by Chris Dewhurst.
K:G
P:A
|: "G"dBd "/"g2d | "C"ece "G"d3 | "C"cde "G/B"dBG | "A7"ABG "D7"FED |\
"G"dBd "/"g2d | "C"ece "G"d3 | "C"cde "G/B"dBG | "D"ADF "G"G3 :|
P:B
|: "Em"BGB "/"e2e | "B7"^def "/"B2f | "Em"gfa "/"gfe | "B7"^def "/"B3 |\
"Em"BGB "/"e2e | "B7"^def "/"B2f | "Em"gfe "Am"fge | "B7"^d^cd "Em"e3 :|
P:C
|: "D"dAd "/"d2c | "G"Bdg "/"dBG | "C"cde "G/B"dBG | "A7"ABG "D"FED |\
"D"AFA "/"d2c | "G"Bdg "/"dBG | "C"cde "G/B"dBG | "D"ADF "G"G3 :|

